Papirus/22x22/panel/pomodoro-start-dark.svg

<?xml version="1.0" encoding="UTF-8" standalone="no"?>
<svg xmlns:dc="http://purl.org/dc/elements/1.1/" xmlns:cc="http://creativecommons.org/ns#" xmlns:rdf="http://www.w3.org/1999/02/22-rdf-syntax-ns#" xmlns:svg="http://www.w3.org/2000/svg" xmlns="http://www.w3.org/2000/svg" version="1.1" id="svg2" height="22" width="22">
    <metadata id="metadata7">
        <rdf:RDF>
            <cc:Work rdf:about="">
                <dc:format>
                    image/svg+xml
                </dc:format>
                <dc:type rdf:resource="http://purl.org/dc/dcmitype/StillImage"/>
                <dc:title/>
            </cc:Work>
        </rdf:RDF>
    </metadata>
    <g transform="translate(0,-1030.3622)" id="layer1">
        <path id="path5689" transform="translate(0,1030.3622)" d="M 11 2 C 8.8724001 2 6.91554 2.73435 5.375 3.96875 L 3.5625 2.15625 L 2.15625 3.5625 L 3.96875 5.375 C 2.73442 6.9155 2 8.8724 2 11 C 2 15.9706 6.0294401 20 11 20 C 15.97057 20 20 15.9706 20 11 C 20 8.8724 19.26559 6.9155 18.03125 5.375 L 19.84375 3.5625 L 18.4375 2.15625 L 16.625 3.96875 C 15.08447 2.73435 13.1276 2 11 2 z M 11 4 C 14.865993 4 18 7.1340068 18 11 C 18 14.865993 14.865993 18 11 18 C 7.1340068 18 4 14.865993 4 11 C 4 7.1340068 7.1340068 4 11 4 z M 7.5 7.5 L 7.5 14.5 L 14.5 11 L 7.5 7.5 z " style="fill:#000000;fill-opacity:1;stroke:none;opacity:0.5"/>
    </g>
</svg>

<?xml version="1.0" encoding="UTF-8" standalone="no"?>
<svg id="svg2" xmlns:rdf="http://www.w3.org/1999/02/22-rdf-syntax-ns#" xmlns="http://www.w3.org/2000/svg" height="22" width="22" version="1.1" xmlns:cc="http://creativecommons.org/ns#" xmlns:dc="http://purl.org/dc/elements/1.1/">
 <metadata id="metadata7">
  <rdf:RDF>
   <cc:Work rdf:about="">
    <dc:format>image/svg+xml</dc:format>
    <dc:type rdf:resource="http://purl.org/dc/dcmitype/StillImage"/>
    <dc:title/>
   </cc:Work>
  </rdf:RDF>
 </metadata>
 <g id="layer1" transform="translate(0 -1030.4)">
  <path id="path5689" opacity=".5" d="m11 2c-2.1276 0-4.0845 0.7344-5.625 1.9688l-1.8125-1.8126-1.4063 1.4063 1.8126 1.8125c-1.2344 1.5405-1.9688 3.4974-1.9688 5.625 0 4.971 4.0294 9 9 9 4.971 0 9-4.029 9-9 0-2.1276-0.734-4.0845-1.969-5.625l1.813-1.8125-1.406-1.4063-1.813 1.8126c-1.541-1.2344-3.497-1.9688-5.625-1.9688zm0 2c3.866 0 7 3.134 7 7s-3.134 7-7 7-7-3.134-7-7 3.134-7 7-7zm-3.5 3.5v7l7-3.5-7-3.5z" transform="translate(0 1030.4)"/>
 </g>
</svg>
